src/main/resources/icons/PythonJupyterIcons/icons/com.jetbrains.python.jupyter/kernel.svg

<svg xmlns="http://www.w3.org/2000/svg" width="16" height="16" viewBox="0 0 16 16">
  <path fill="#6E6E6E" fill-rule="evenodd" d="M10,6 L6,6 L6,10 L10,10 L10,6 Z M8.8,8.8 L7.2,8.8 L7.2,7.2 L8.8,7.2 L8.8,8.8 Z M15,7 L15,5.5 L13.5,5.5 L13.5,4.11111111 C13.5,3.25555556 12.7444444,2.5 11.8888889,2.5 L10.5,2.5 L10.5,1 L9,1 L9,2.5 L7,2.5 L7,1 L5.5,1 L5.5,2.5 L4.11111111,2.5 C3.25555556,2.5 2.5,3.25555556 2.5,4.11111111 L2.5,5.5 L1,5.5 L1,7 L2.5,7 L2.5,9 L1,9 L1,10.5 L2.5,10.5 L2.5,11.8888889 C2.5,12.7444444 3.25555556,13.5 4.11111111,13.5 L5.5,13.5 L5.5,15 L7,15 L7,13.5 L9,13.5 L9,15 L10.5,15 L10.5,13.5 L11.8888889,13.5 C12.7444444,13.5 13.5,12.7444444 13.5,11.8888889 L13.5,10.5 L15,10.5 L15,9 L13.5,9 L13.5,7 L15,7 Z M12,12 L4,12 L4,4 L12,4 L12,12 Z"/>
</svg>

<svg xmlns="http://www.w3.org/2000/svg" width="16" height="16" viewBox="0 0 16 16"><rect id="frame" width="16" height="16" fill="none"/><path fill="#6E6E6E" fill-rule="evenodd" d="M10 6H6v4h4V6zM8.8 8.8H7.2V7.2h1.6v1.6zM15 7V5.5h-1.5V4.111c0-.855-.756-1.611-1.611-1.611H10.5V1H9v1.5H7V1H5.5v1.5H4.111c-.855 0-1.611.756-1.611 1.611V5.5H1V7h1.5v2H1v1.5h1.5v1.389c0 .855.756 1.611 1.611 1.611H5.5V15H7v-1.5h2V15h1.5v-1.5h1.389c.855 0 1.611-.756 1.611-1.611V10.5H15V9h-1.5V7H15zm-3 5H4V4h8v8z"/></svg>
